X: 74
T:The Mist-Covered Mountains
T:Chi Mi na Mor-Bheanna
T:Hush, Hush
N:based on the English song "Oh dear what can the matter be"
G:slow march
M:6/8
L:1/8
Q:3/8=50
K:BMin
B3 B3|f2f  f>ec|A3   A3  |c>Bc B>AB|
d3 e3|f>ga c>BA|B>cf e>dc|B3   B3 :|
f3 f3|e>fa f>ec|A2A  e2c |f2f  e>dc|
d3 e3|f>ga c>BA|B>cf e>dc|B3   B3 :|


6. The Phrygian Mode
== =================

The PHRYGIAN mode is the white-note scale starting on E; interval sequence
STTT STT.  In A it's A_Bcdefga.  It is very rare in Scottish music, mainly
occurring in street cries and work songs.  In sol-fa it's the mi-mode.

